Numix-GalliumOS/48/actions/package-upgrade.svg

<?xml version="1.0" encoding="UTF-8" standalone="no"?>
<svg
   xmlns:dc="http://purl.org/dc/elements/1.1/"
   xmlns:cc="http://creativecommons.org/ns#"
   xmlns:rdf="http://www.w3.org/1999/02/22-rdf-syntax-ns#"
   xmlns:svg="http://www.w3.org/2000/svg"
   xmlns="http://www.w3.org/2000/svg"
   xmlns:sodipodi="http://sodipodi.sourceforge.net/DTD/sodipodi-0.dtd"
   xmlns:inkscape="http://www.inkscape.org/namespaces/inkscape"
   width="48"
   height="48"
   viewBox="0 0 48 48"
   id="svg2"
   version="1.1"
   inkscape:version="0.48.4 r9939"
   sodipodi:docname="package-install.svg">
  <metadata
     id="metadata18">
    <rdf:RDF>
      <cc:Work
         rdf:about="">
        <dc:format>image/svg+xml</dc:format>
        <dc:type
           rdf:resource="http://purl.org/dc/dcmitype/StillImage" />
        <dc:title></dc:title>
      </cc:Work>
    </rdf:RDF>
  </metadata>
  <defs
     id="defs16" />
  <sodipodi:namedview
     pagecolor="#ffffff"
     bordercolor="#666666"
     borderopacity="1"
     objecttolerance="10"
     gridtolerance="10"
     guidetolerance="10"
     inkscape:pageopacity="0"
     inkscape:pageshadow="2"
     inkscape:window-width="640"
     inkscape:window-height="480"
     id="namedview14"
     showgrid="false"
     inkscape:zoom="4.9166667"
     inkscape:cx="24"
     inkscape:cy="24"
     inkscape:window-x="0"
     inkscape:window-y="27"
     inkscape:window-maximized="0"
     inkscape:current-layer="svg2" />
  <path
     style="fill:#c19553"
     d="M 6.285156 4 C 5.144531 4 4 5.144531 4 6.285156 L 4 41.777344 C 4 42.855469 5.144531 44 6.222656 44 L 41.777344 44 C 42.859375 44 44 42.855469 44 41.777344 L 44 6.222656 C 44 5.144531 42.859375 4 41.777344 4 Z "
     id="path4" />
  <g
     style="fill:#fff"
     id="g6">
    <path
       style="fill-opacity:.196"
       d="M 6.285156 4 C 5.144531 4 4 5.144531 4 6.285156 L 4 18 C 8.445312 18 39.554688 18 44 18 L 44 6.222656 C 44 5.144531 42.859375 4 41.777344 4 Z "
       id="path8" />
    <path
       style="fill-opacity:.392"
       d="M 20 8 L 20 26 L 28 26 L 28 8 Z "
       id="path10" />
  </g>
  <path
     style="fill:#859900"
     d="m 36,24 -12,12 8,0 0,12 8,0 0,-12 8,0 z"
     id="path12"
     inkscape:connector-curvature="0" />
</svg>

<svg xmlns="http://www.w3.org/2000/svg" viewBox="0 0 48 48">
 <path d="m 6.285 4 c -1.141 0 -2.285 1.145 -2.285 2.285 l 0 35.492 c 0 1.078 1.145 2.223 2.223 2.223 l 35.555 0 c 1.082 0 2.223 -1.145 2.223 -2.223 l 0 -35.555 c 0 -1.078 -1.141 -2.223 -2.223 -2.223 Z" style="fill:#c19553"/>
 <g style="fill:#fff">
  <path d="m 6.285 4 c -1.141 0 -2.285 1.145 -2.285 2.285 l 0 11.715 c 4.445 0 35.555 0 40 0 l 0 -11.777 c 0 -1.078 -1.141 -2.223 -2.223 -2.223 Z" style="fill-opacity:0.196"/>
  <path d="m 20 8 l 0 18 l 8 0 l 0 -18 Z" style="fill-opacity:0.392"/>
 </g>
 <path d="m 36 24 -12 12 8 0 0 12 8 0 0 -12 8 0 z" style="fill:#859900"/>
</svg>
